local/share/icons/dracula-icons-main/scalable/apps/wps-office2019-pdfmain.svg

<?xml version="1.0" encoding="UTF-8"?>
<svg xmlns="http://www.w3.org/2000/svg" xmlns:xlink="http://www.w3.org/1999/xlink" width="64" height="64" viewBox="0 0 64 64">
<path fill-rule="nonzero" fill="rgb(86.27451%, 29.803922%, 22.745098%)" fill-opacity="1" d="M 15.609375 8.464844 C 15.609375 12.410156 12.410156 15.609375 8.464844 15.609375 C 4.519531 15.609375 1.324219 12.410156 1.324219 8.464844 C 1.324219 4.519531 4.519531 1.324219 8.464844 1.324219 C 12.410156 1.324219 15.609375 4.519531 15.609375 8.464844 Z M 15.609375 8.464844 "/>
<path fill-rule="evenodd" fill="rgb(100%, 100%, 100%)" fill-opacity="1" d="M 7.671875 4.496094 C 7.453125 4.496094 7.277344 4.675781 7.277344 4.894531 L 7.277344 8.070312 C 7.277344 8.289062 7.453125 8.464844 7.671875 8.464844 C 7.894531 8.464844 8.070312 8.289062 8.070312 8.070312 L 8.070312 5.292969 L 9.390625 5.292969 C 10.414062 5.292969 11.246094 6.121094 11.246094 7.144531 C 11.246094 8.167969 10.414062 8.996094 9.390625 8.996094 L 6.480469 8.996094 L 6.480469 9.003906 C 5.585938 9.070312 4.894531 9.816406 4.894531 10.714844 C 4.894531 11.664062 5.664062 12.433594 6.613281 12.433594 L 7.671875 12.433594 C 7.894531 12.433594 8.070312 12.257812 8.070312 12.039062 L 8.070312 10.714844 C 8.070312 10.496094 7.894531 10.320312 7.671875 10.320312 C 7.453125 10.320312 7.277344 10.496094 7.277344 10.714844 L 7.277344 11.640625 L 6.613281 11.640625 C 6.101562 11.640625 5.6875 11.226562 5.6875 10.714844 C 5.6875 10.203125 6.101562 9.789062 6.613281 9.789062 L 9.390625 9.789062 C 10.855469 9.789062 12.039062 8.605469 12.039062 7.144531 C 12.039062 5.683594 10.855469 4.496094 9.390625 4.496094 Z M 7.671875 4.496094 "/>
</svg>

<svg width="64" height="64" version="1.1" viewBox="0 0 16.933 16.933" xmlns="http://www.w3.org/2000/svg">
 <circle cx="8.4665" cy="8.4665" r="7.1436" fill="#dc4c3a" style="paint-order:stroke fill markers"/>
 <path d="m7.6728 4.498c-0.21986 0-0.39687 0.177-0.39687 0.39687v3.1749c0 0.21986 0.177 0.39687 0.39687 0.39687s0.39687-0.177 0.39687-0.39687v-2.7781h1.3229a1.852 1.852 0 0 1 1.852 1.852 1.852 1.852 0 0 1-1.852 1.852h-2.9104v0.0067a1.7198 1.7198 0 0 0-1.5875 1.713 1.7198 1.7198 0 0 0 1.7198 1.7198h1.0583c0.21986 0 0.39687-0.177 0.39687-0.39687v-1.3229c0-0.21986-0.177-0.39687-0.39687-0.39687s-0.39687 0.177-0.39687 0.39687v0.92602h-0.66144a0.92602 0.92602 0 0 1-0.92602-0.92602 0.92602 0.92602 0 0 1 0.92602-0.92602h2.7781a2.6458 2.6458 0 0 0 2.6458-2.6458 2.6458 2.6458 0 0 0-2.6458-2.6458z" fill="#fff" fill-rule="evenodd" style="paint-order:stroke fill markers"/>
</svg>
